findly-builder/apps/searchassist/src/assets/images/icons/localfileupload.svg

<svg width="15" height="12" viewBox="0 0 15 12" fill="none" xmlns="http://www.w3.org/2000/svg">
<path fill-rule="evenodd" clip-rule="evenodd" d="M1.5 1C1.22414 1 1 1.22414 1 1.5V8.5C1 8.77586 1.22414 9 1.5 9H13.5C13.7759 9 14 8.77586 14 8.5V1.5C14 1.22414 13.7759 1 13.5 1H1.5ZM0 1.5C0 0.671858 0.671858 0 1.5 0H13.5C14.3281 0 15 0.671858 15 1.5V8.5C15 9.32814 14.3281 10 13.5 10H8V11H11V12H4V11H6.99695C6.99615 10.8505 6.99535 10.681 6.99475 10.5111C6.99413 10.3343 6.99373 10.1565 6.99378 10H1.5C0.671858 10 0 9.32814 0 8.5V1.5Z" fill="black"/>
</svg>

<svg width="15" height="12" fill="none" xmlns="http://www.w3.org/2000/svg"><path fill-rule="evenodd" clip-rule="evenodd" d="M1.5 1a.5.5 0 0 0-.5.5v7a.5.5 0 0 0 .5.5h12a.5.5 0 0 0 .5-.5v-7a.5.5 0 0 0-.5-.5h-12ZM0 1.5A1.5 1.5 0 0 1 1.5 0h12A1.5 1.5 0 0 1 15 1.5v7a1.5 1.5 0 0 1-1.5 1.5H8v1h3v1H4v-1h2.997a272.787 272.787 0 0 1-.003-1H1.5A1.5 1.5 0 0 1 0 8.5v-7Z" fill="#000"/></svg>
